X:365
T: Memories of Morrison
S: Luke O'Malley vol 1
Z: B.Black
M: 4/4
L: 1/8
R: reel
K: A
cdef ecc2 | ecae fBB2 | cdef ecaf | eccB cA A2 |
cde=g fdd2 | ecc2 dBB2 | Acef ecaf | eccB cAA2 ||
c'aa2 faea | c'aa2  bc'd'b | c'aga (3faf ec |\
dfed cA A2 |
c'aa2 faea | c'3 a babd' | c'aa2 (3fga ec |\
dfed cA A2 ||
W: %space
K: D %Transposed from A
FGAB AFF2 | AFdA BEE2 | FGAB AFdB | AFFE FD D2 |
FGA=c BGG2 | AFF2 GEE2 | DFAB AFdB | AFFE FDD2 ||
fdd2 BdAd | fdd2 efge | fdcd (3BdB AF | GBAG FD D2 |
fdd2 BdAd | f3 d edeg | fdd2 (3Bcd AF | GBAG FD D2 ||
